X:1
T:A minor Jeremiah Ingalls, 1805
T:Anonymous Author, before 1803 88. 88. (L. M.)
T:Separation
T:Transcribed from  Ingalls' Christian Harmony, 1805.
%%score [ 1 2 3 ]
L:1/8
Q:1/4=90
M:4/4
K:C
V:1 treble nm="Tr." snm="Tr."
V:2 treble-8 nm="T." snm="T."
V:3 bass nm="B." snm="B."
V:1
"^1. Come ye that love the Lord indeed,  Who  are  from  sin  and   bondage  freed,  Sub–mit   to    all   the    ways  of        God,   And\n2. That  happy day will  soon appear,  When  Gabriel's  trumpet  you  shall hear,  Sound thro' the earth, yea down to hell,   To" cd | %1
 e2 d2 d2 ed | cA GA !fermata!c2 cd | e2 d2 d2 ed | cd ef ^g3 g | c2 cd e2 fe | dc d2 e3 e | %7
"^1. walk that narrow happy road.                    Great  tri–bu–la–tion you shall  meet,    But  soon  shall  walk  the golden  street;  Tho' \n2. call the nations great and small.                Be –hold the earth in burning flames,  The  trum–pet  louder  still  pro–claims;   The" A2 AB cd Bc | %8
 A2 E2 A4- | A4 z2 cd |: e2 d2 d2 ed | cA GA !fermata!c2 cd | e2 d2 d2 ed | cd ef ^g3 g | %14
"^1. hell may rage and vent her spite,  Yet Christ will save his heart's delight.                 Great        heart's delight.\n2. earth must hear and know her doom,  The  sep – a – ra – tion day is come.                 Be –          day is come." c2 cd e2 fe | %15
 dc d2 e3 e | A2 AB cd Bc |1 A2 E2 A4- ||1 A4 z2 cd :|2 A2 E2 A4- || A4 |] %21
V:2
"^3. Behold the righteous marching home, And all the angels bid them come,  When Christ himself these words proclaims,  Here\n4. In   grandeur   see   the  ro – yal  line,  In glittering robes the sun outshine;   See    saints   and   an – gels   join    in    one,    And" ed | %1
 c2 A2 A2 cA | GE B,E !fermata!G2 ed | c2 A2 A2 ^G2 | AB cd e3 e | f2 ed e2 dc | dc BA ^G3 G | %7
"^3. come my saints, I know their names.        Ye   e – ver – las – ting   gates   fly  wide,   Make   rea–dy   to   re–ceive   my  bride;   Ye\n4. march  in  splendor  to  the  throne.          They  stand  in  won–der  and  look  on,   They   join  in   one   e  – ter – nal song,   Their" AB cd eg de | %8
 c2 A2 A4- | A4 z2 (3efg |: a2 A2 A2 cA | GE CE !fermata!G2 (3efg | a2 A2 A2 ^G2 | AB cd e3 e | %14
"^3. harps of heav'n now sound aloud,  Here comes the purchase of my blood!                Ye              of my blood!\n4. great   Re – dee – mer  to admire,   While  rapture  sets  their  souls  on fire.               They        souls on fire." f2 ed e2 dc | %15
 dc BA ^G3 G | AB cd eg de |1 c2 A2 A4- ||1 A4 z2 (3efg :|2 c2 A2 A4- || A4 |] %21
V:3
"^5. They've fought the fight, the race is run,  Their joys are now in heav'n begun,  Their tears are gone, their sorrows flee,  No" A,2 | %1
 A,2 D,2 D,2 E,C, | C,2 C,2 !fermata!C,2 A,2 | A,2 D,2 D,2 E,2 | A,G, A,B, E,3 E, | %5
 A,2 A,B, C2 B,A, | G,A, G,F, E,3 E, | %7
"^5. more af –flic – ted  now like me.                   Here    I   am  now  in  pri–son  bound,    And   tri–als   wait  me    all  a – round,     O" A,2 A,2 E,2 D,2 | %8
 C,2 E,2 A,,4- | A,,4 z2 A,2 |: A,2 D,2 D,2 E,D, | C,2 C,2 !fermata!C,2 A,2 | A,2 D,2 D,2 E,2 | %13
 A,G, A,B, E,3 E, | %14
"^5. would'st thou Lord now burst the chain,  How I would join to praise thy name.               Here      praise thy name." A,2 A,B, C2 B,A, | %15
 G,A, G,F, E,3"^_______________________________\nA folk hymn (Jackson 1953b, no. 109)" E, | %16
 A,2 A,2 E,2 D,2 |1 C,2 E,2 (A,,4 ||1 A,,4) z2 A,2 :|2 C,2 E,2 A,,4- || A,,4 |] %21

